X: 1
T: Anvil, The
M: 4/4
L: 1/8
R: reel
K: Amin
|:E2 AE EAAE|E2 AB cBAE|F2 AB cBAE|F2 AB cBAF|
G2 Bc dcBc|dcBc dcBd|cBAB cBAB|cBAB cB A2:|
|:edcB ABcd|edcB ABAE|F2 AB cBAE|F2 AB cBAF|
G2 Bc dcBc|dcBc dcBd|cBAB cB AB|cBAB cB A2:|
|:eaed cBAe|eaed cBAE|F2 AB cBAE|F2 AB cBAF|
G2 Bc dcBc|dcBc dcBd|cBAB cBAB|cBAB cB A2:|
